src/lib/packages/icons/src/assets/line/arrow-down-left-square.svg

<svg width="24" height="24" viewBox="0 0 24 24" fill="none" xmlns="http://www.w3.org/2000/svg">
<path d="M17.625 2.25H6.375C3.715 2.25 2.25 3.715 2.25 6.375V17.625C2.25 20.285 3.715 21.75 6.375 21.75H17.625C20.285 21.75 21.75 20.285 21.75 17.625V6.375C21.75 3.715 20.285 2.25 17.625 2.25ZM20.25 17.625C20.25 19.465 19.465 20.25 17.625 20.25H6.375C4.535 20.25 3.75 19.465 3.75 17.625V6.375C3.75 4.535 4.535 3.75 6.375 3.75H17.625C19.465 3.75 20.25 4.535 20.25 6.375V17.625ZM15.53 8.46997C15.823 8.76297 15.823 9.23801 15.53 9.53101L10.8101 14.251H13C13.414 14.251 13.75 14.587 13.75 15.001C13.75 15.415 13.414 15.751 13 15.751H9C8.902 15.751 8.80489 15.7311 8.71289 15.6931C8.52989 15.6171 8.38411 15.4711 8.30811 15.2881C8.27011 15.1961 8.25 15.099 8.25 15.001V11.001C8.25 10.587 8.586 10.251 9 10.251C9.414 10.251 9.75 10.587 9.75 11.001V13.1899L14.47 8.46997C14.763 8.17697 15.237 8.17697 15.53 8.46997Z" fill="currentColor"/>
</svg>

<svg xmlns="http://www.w3.org/2000/svg" width="24" height="24" fill="none"><path fill="currentColor" d="M17.625 2.25H6.375c-2.66 0-4.125 1.465-4.125 4.125v11.25c0 2.66 1.465 4.125 4.125 4.125h11.25c2.66 0 4.125-1.465 4.125-4.125V6.375c0-2.66-1.465-4.125-4.125-4.125Zm2.625 15.375c0 1.84-.785 2.625-2.625 2.625H6.375c-1.84 0-2.625-.785-2.625-2.625V6.375c0-1.84.785-2.625 2.625-2.625h11.25c1.84 0 2.625.785 2.625 2.625v11.25ZM15.53 8.47a.75.75 0 0 1 0 1.061l-4.72 4.72H13a.75.75 0 0 1 0 1.5H9a.751.751 0 0 1-.75-.75v-4a.75.75 0 0 1 1.5 0v2.189l4.72-4.72a.749.749 0 0 1 1.06 0Z"/></svg>
